!!!COM:	Obrecht, Jacob
!!!CDT:	1458-1505/07/
!!!OPR:	Missa Ave regina celorum
!!!ONM:	2
!!!OTL:	Gloria
!!!AGN:	Mass; Gloria
!!!SCT:	Obr1002b
!!!SCA:	Obr1002b
!!!voices-OPR:	4
!!!voices:	4
**kern	**kern	**kern	**kern
*staff4	*staff3	*staff2	*staff1
*Ivox	*Ivox	*Ivox	*Ivox
*I"Bassus	*I"Tenor	*I"Altus	*I"Discantus
*I'B	*I'T	*I'A	*I'D
*>[A,B,C]	*>[A,B,C]	*>[A,B,C]	*>[A,B,C]
*>A	*>A	*>A	*>A
*clefF4	*clefGv2	*clefGv2	*clefG2
*k[b-]	*k[b-]	*k[b-]	*k[b-]
*M3/1	*M3/1	*M3/1	*M3/1
*met(O)	*met(O)	*met(O)	*met(O)
!!section: Et in terra pax
!!!OMD: Et in terra pax
=1-	=1-	=1-	=1-
0.r	0.r	0.f	0cc
.	.	.	[1cc
=2	=2	=2	=2
0.r	0.r	1.f	2cc\]
.	.	.	1a
.	.	1d	2f/
.	.	.	1f
.	.	2B-\	.
=3	=3	=3	=3
0.r	0.r	1B-	2g/
.	.	.	2b-\
.	.	2c\	2a/
.	.	2e-\	2g/
.	.	2.d\	1f
.	.	4c\	.
=4	=4	=4	=4
0.r	0.r	1B-	2r
.	.	.	2g/
.	.	2r	3a/V
.	.	.	3b-\
.	.	2c\	.
.	.	.	3cc\Z
.	.	2d\	3b-\V
.	.	.	3a/
.	.	2e\	.
.	.	.	3g/Z
=5	=5	=5	=5
0.F	0c	0.f	0.a
.	[1c	.	.
=6	=6	=6	=6
1.F	2c\]	0.r	0.r
.	1A	.	.
1D	2F/	.	.
.	1F	.	.
2BB-/	.	.	.
=7	=7	=7	=7
1BB-	2G/	0.r	0.r
.	2B-\	.	.
2C/	2A/	.	.
2E-\	2G/	.	.
2.D\	1F	.	.
4C/	.	.	.
=8	=8	=8	=8
1BB-	2r	0.r	0.r
.	2G/	.	.
2r	3A/V	.	.
.	3B-\	.	.
2C/	.	.	.
.	3c\Z	.	.
2D\	3B-\V	.	.
.	3A/	.	.
2E\	.	.	.
.	3G/Z	.	.
=9	=9	=9	=9
0F	0A	1f	2r
.	.	.	1cc
.	.	1f	.
.	.	.	1cc
1r	1r	1e	.
.	.	.	[2b-\
=10	=10	=10	=10
0.r	0.r	1d	2b-\]
.	.	.	1a
.	.	2.c\	.
.	.	.	2g/
.	.	4B-\	.
.	.	2A/	2f/
.	.	2G/	2e/
=11	=11	=11	=11
0.r	0.r	2F/	2a/
.	.	2E/	2.g/
.	.	1A	.
.	.	.	4f/
.	.	.	1f
.	.	1G	.
.	.	.	2e/
=12	=12	=12	=12
2.F\	0.r	4F/	0.f
.	.	4G/	.
.	.	4A/	.
4G\	.	4B-\	.
2A\	.	2c\	.
1B-	.	2.d\	.
.	.	4B-\	.
2A\	.	2c\	.
=13	=13	=13	=13
2F\	0.r	2d\	2r
2.c\	.	2e\	1g
.	.	2c\	.
4B-\	.	.	.
2A\	.	1f	2a/
1G	.	.	2b-\
.	.	2e\	4a/
.	.	.	4g/
=14	=14	=14	=14
1.F	0f	2f\	2.a/
.	.	4e\	.
.	.	4d\	4b-\
.	.	2c\	2cc\
1.D	.	2B-\	2.dd\
.	1f	1d	.
.	.	.	4cc\
.	.	.	4b-\
.	.	.	4a/
=15	=15	=15	=15
1.E-	0e-	1B-	2.g/
.	.	.	4a/
.	.	1G	2b-\
1.C	.	.	2.cc\
.	1e-	1c	.
.	.	.	4b-\
.	.	.	4a/
.	.	.	4g/
=16	=16	=16	=16
1.D	0d	1A	2.f/
.	.	.	4g/
.	.	1F	2a/
1.BB-	.	.	2.b-\
.	1d	1B-	.
.	.	.	4a/
.	.	.	4g/
.	.	.	4f/
=17	=17	=17	=17
1.C	0c	1G	2.e/
.	.	.	4f/
.	.	1E	2g/
1.AA	.	.	2.a/
.	1c	1A	.
.	.	.	4g/
.	.	.	4f/
.	.	.	4e/
=18	=18	=18	=18
1.BB-	0B-	1F	2.d/
.	.	.	4e/
.	.	1D	2f/
1.GG	.	.	2.g/
.	1B-	1G	.
.	.	.	4f/
.	.	.	4e/
.	.	.	4d/
=19	=19	=19	=19
1.AA	0A	1E	2.c/
.	.	.	4d/
.	.	1C	2e/
1.FF	.	.	2.f/
.	1A	1F	.
.	.	.	4e/
.	.	.	4d/
.	.	.	4c/
=20	=20	=20	=20
1.GG	0G	1D	2.B-/
.	.	.	4c/
.	.	1BB-	2d/
1.EE-	.	.	2.e-/
.	1G	1E-	.
.	.	.	4d/
.	.	.	4c/
.	.	.	4B-/
=21	=21	=21	=21
2.FF/	1F	2C/	2.A/
.	.	1c	.
4GG/	.	.	4B-/
2AA/	1F	.	2c/
2BB-/	.	2B-\	2d/
1C	1E	1G	2e/
.	.	.	[2c/
=22	=22	=22	=22
4FF/	1.A	2F/	2c/]
4GG/	.	.	.
4AA/	.	1c	2f/
4BB-/	.	.	.
2C/	.	.	2e/
2D\	2F/	2B-\	1f
1C	1G	1c	.
.	.	.	2e/
=23	=23	=23	=23
0.FF	0.F	2.A/	1f
.	.	4B-\	.
.	.	2c\	2r
.	.	2d\	2.f/
.	.	2c\	.
.	.	.	4g/
.	.	2f\	4a/
.	.	.	4b-\
=24	=24	=24	=24
0.r	0.r	2e\	2.cc\
.	.	2.f\	.
.	.	.	4b-\
.	.	.	4a/
.	.	4e\	4g/
.	.	4d\	2.b-\
.	.	4c\	.
.	.	2.e-\	.
.	.	.	4a/
.	.	.	4g/
.	.	4d\	4f/
=25	=25	=25	=25
0.r	0.r	4c\	2.a/
.	.	4B-\	.
.	.	2.d\	.
.	.	.	4g/
.	.	.	4f/
.	.	4c\	4e/
.	.	4B-\	2.g/
.	.	4A/	.
.	.	1c	.
.	.	.	4f/
.	.	.	2e/
=26	=26	=26	=26
1.G	0.r	2B-\	1d
.	.	1d	.
.	.	.	1r
2E\	.	1c	.
1D	.	.	1d
.	.	2Bni\	.
=27	=27	=27	=27
1C	1.c	2c\	1e
.	.	1A	.
1F	.	.	1f
.	2A/	1d	.
1E	1G	.	2.g/
.	.	2c#i\	.
.	.	.	4a/
=28	=28	=28	=28
1D	1F	0d	2b-\
.	.	.	2a/
2r	1B-	.	2f/
1G	.	.	2g/
.	1A	1D	1a
2F#i\	.	.	.
=29	=29	=29	=29
1G	1G	1d	2b-\
.	.	.	2.g/
1r	2r	2B-\	.
.	.	.	4f/
.	1c	2c\	2e/
1r	.	2G/	1d
.	2Bni\	[2g\	.
=30	=30	=30	=30
0.r	1c	2g\]	2c/
.	.	2e\	1cc
.	1r	1d	.
.	.	.	2bni\
.	1r	2c\	1cc
.	.	[2f\	.
=31	=31	=31	=31
2D\	1r	2f\]	2a/
2E\	.	2e\	2g/
2D\	1r	2f\	2a/
1G	.	2.d\	1b-
.	2G/	.	.
.	.	4B-\	.
2F\	2A/	2c\	2a/
=32	=32	=32	=32
2G\	2G/	2B-\	2d/
2C/	1c	4A/	2.e/
.	.	2G/	.
2E\	.	.	.
.	.	8F/L	4c/
.	.	8E/J	.
2D\	2Bni\	2F/	4d/
.	.	.	4f/
1C	1c	2G/	4e/
.	.	.	4c/
.	.	2A/	[2cc\
=33	=33	=33	=33
0.r	2r	1F	4cc\]
.	.	.	4b-\
.	1c	.	2a/
.	.	2E/	2g/
.	2.F/	2D/	2.a/
.	.	1F	.
.	4G/	.	4g/
.	2A/	.	[2f/
=34	=34	=34	=34
1r	1G	1C	2f/]
.	.	.	2e/
1r	1F	2c\	1f
.	.	2A/	.
2G\	2r	2B-\	1r
2E\	2c\	2c\	.
=35	=35	=35	=35
2F\	2A/	1r	2f/
2G\	2B-\	.	2d/
1r	0c	2r	2e/
.	.	2F/	2f/
1r	.	4E/	2g/
.	.	4C/	.
.	.	2c\	2e/
=36	=36	=36	=36
2D\	2r	4A/	2f/
.	.	2B-\	.
2E\	2G/	.	2g/
.	.	2c\	.
2F\	2A/	.	2r
.	.	2d\	.
2G\	2B-\	.	2g/
.	.	4B-\	.
1r	1c	2.A/	2a/
.	.	.	2cc\
.	.	4F/	.
=37	=37	=37	=37
2r	0.r	4G/	4b-\
.	.	4B-\	2g/
2D\	.	2A/	.
.	.	.	4f/
2E\	.	4G/	2g/
.	.	2c\	.
2F\	.	.	2a/
.	.	4A/	.
2.G\	.	2.B-\	2.d/
4F\	.	4c\	4e/
=38	=38	=38	=38
2D\	1r	2d\	2f/
2C/	.	2.e-\	1g
1E-	2r	.	.
.	.	4d\	.
.	2G/	4B-\	4f/
.	.	4c\	4e/
1D	2A/	1d	2f/
.	2B-\	.	4e/
.	.	.	4d/
=39	=39	=39	=39
1r	2.c\	1A	2.e/
.	4B-\	.	4f/
1r	2G/	2B-\	2g/
.	2F/	1c	1a
2r	1A	.	.
2F\	.	2A/	4g/
.	.	.	4f/
=40	=40	=40	=40
2E\	1G	2.B-\	2.g/
2.G\	.	.	.
.	.	4c\	4a/
.	1r	2d\	2b-\
4F\	.	.	.
2E\	.	2e\	2cc\
1D	2r	[1f	1dd
.	2B-\	.	.
=41	=41	=41	=41
1r	2A/	2f\]	2cc\
.	2.c\	2.e-\	4b-\
.	.	.	4a/
1r	.	.	2g/
.	4B-\	4d\	.
.	2A/	2c\	2f/
2r	2G/	2B-\	2.g/
2C/	2E/	2c\	.
.	.	.	4a/
=42	=42	=42	=42
2BB-/	2F/	2d\	2b-\
2C/	2E/	1c	2.a/
1D	1F	.	.
.	.	.	4g/
.	.	2B-\	1f
1C	1G	1c	.
.	.	.	2e/
=43	=43	=43	=43
0.FFl	0.Fl	0.cl	0.fl
!!LO:LB:i:g=z
=44||	=44||	=44||	=44||
*>B	*>B	*>B	*>B
*clefF4	*clefGv2	*clefGv2	*clefG2
*k[b-]	*k[b-]	*k[b-]	*k[b-]
*M2/1	*M2/1	*M2/1	*M2/1
*met(C|)	*met(C|)	*met(C|)	*met(C|)
!!section: Domine fili
!!!OMD: Domine fili
0r	0r	1.F	0r
.	.	2G/	.
=45	=45	=45	=45
0r	0r	1A	0r
.	.	1B-	.
=46	=46	=46	=46
0r	0r	2A/	1.f
.	.	1B-	.
.	.	4A/	2g/
.	.	4G/	.
=47	=47	=47	=47
0r	0r	2F/	1a
.	.	2A/	.
.	.	1G	1b-
=48	=48	=48	=48
0r	0r	2r	2a/
.	.	1G	1b-
.	.	2B-\	4a/
.	.	.	4g/
=49	=49	=49	=49
0r	0r	2A/	2f/
.	.	1c	2a/
.	.	.	1g
.	.	4B-\	.
.	.	4A/	.
=50	=50	=50	=50
0r	0r	2B-\	2r
.	.	2c\	1g
.	.	1G	.
.	.	.	2b-\
=51	=51	=51	=51
0r	0r	2r	2a/
.	.	1A	1cc
.	.	4G/	4b-\
.	.	4F/	4a/
=52	=52	=52	=52
0r	0r	2G/	2b-\
.	.	2A/	2cc\
.	.	1B-	1g
=53	=53	=53	=53
0r	0r	1A	2r
.	.	.	1a
.	.	2r	.
.	.	[2c\	4g/
.	.	.	4f/
=54	=54	=54	=54
0r	0r	4c\]	2g/
.	.	4B-\	.
.	.	2A/	2a/
.	.	1G	1b-
=55	=55	=55	=55
0r	0r	2.F/	1a
.	.	4E/	.
.	.	2D/	2r
.	.	[2C/	[2cc\
=56	=56	=56	=56
0r	0r	2C/]	4cc\]
.	.	.	4b-\
.	.	1F	2a/
.	.	.	1g
.	.	2E/	.
=57	=57	=57	=57
0r	0r	2F/	2.f/
.	.	2A/	.
.	.	.	4e/
.	.	2B-\	2d/
.	.	[2c\	[2c/
=58	=58	=58	=58
0r	0r	2c\]	2c/]
.	.	4B-\	1f
.	.	4A/	.
.	.	1G	.
.	.	.	2e/
=59	=59	=59	=59
2FF/	0r	2r	1f
2AA/	.	2F/	.
2BB-/	.	2G/	1r
[2C/	.	[2A/	.
=60	=60	=60	=60
2C/]	0r	4A/]	0r
.	.	4G/	.
2AA/	.	1F	.
1GG	.	.	.
.	.	2E/	.
=61	=61	=61	=61
2FF/	0r	1F	2.f/
2F\	.	.	.
.	.	.	4e/
2G\	.	1r	2d/
[2A\	.	.	[2c/
=62	=62	=62	=62
4A\]	0r	1r	4c/]
4G\	.	.	4B-/
1F	.	.	2A/
.	.	2r	1G
2E\	.	2C/	.
=63	=63	=63	=63
2.F\	0r	2.D/	0r
4E\	.	4E/	.
2D\	.	4F/	.
.	.	4G/	.
[2C/	.	2A/	.
=64	=64	=64	=64
4C/]	0r	2G/	1r
4BB-/	.	.	.
2AA/	.	1F	.
1GG	.	.	1g
.	.	2E/	.
=65	=65	=65	=65
1FF	0r	2F/	2a/
.	.	1f	2a/
1r	.	.	1cc
.	.	2e\	.
=66	=66	=66	=66
0r	0r	2d\	2b-\
.	.	2c\	2a/
.	.	2e-\	2g/
.	.	[2d\	2b-\
=67	=67	=67	=67
0r	0r	2d\]	1a
.	.	2c\	.
.	.	2B-\	2g/
.	.	2d\	2f/
=68	=68	=68	=68
0r	0r	1c	2a/
.	.	.	1g
.	.	2B-\	.
.	.	2A/	2f/
=69	=69	=69	=69
0r	0r	2c\	2e/
.	.	1B-	2g/
.	.	.	1f
.	.	2A/	.
=70	=70	=70	=70
0r	0r	2G/	2e/
.	.	2B-\	2d/
.	.	1A	2f/
.	.	.	[2e/
=71	=71	=71	=71
0r	0r	2G/	2e/]
.	.	2F/	2d/
.	.	2A/	2c/
.	.	[2G/	2e/
=72	=72	=72	=72
0r	0r	4G/]	2d/
.	.	4F/	.
.	.	2E/	1c
.	.	1D	.
.	.	.	2Bn/
=73	=73	=73	=73
0r	0r	2r	1c
.	.	2.C/	.
.	.	.	2.c/
.	.	4D/	.
.	.	4E/	.
.	.	4F/	4d/
=74	=74	=74	=74
0r	0r	2G/	2e/
.	.	2A/	2c/
.	.	2F/	2d/
.	.	2G/	2e/
=75	=75	=75	=75
0r	0r	2A/	2f/
.	.	2B-\	2d/
.	.	2G/	2e/
.	.	2A/	2f/
=76	=76	=76	=76
0r	0r	2B-\	2.g/
.	.	2.c\	.
.	.	.	4f/
.	.	.	4e/
.	.	4B-\	4d/
.	.	4A/	2c/
.	.	4G/	.
=77	=77	=77	=77
0r	0r	2F/	2f/
.	.	2.c\	2e/
.	.	.	2a/
.	.	4d\	.
.	.	4e\	2g/
.	.	8d\L	.
.	.	8e\J	.
=78	=78	=78	=78
0r	0r	2f\	2.a/
.	.	2.F/	.
.	.	.	4g/
.	.	.	4f/
.	.	4G/	4e/
.	.	4A/	2f/
.	.	8G/L	.
.	.	8A/J	.
=79	=79	=79	=79
0r	0r	2B-\	2g/
.	.	2F/	1f
.	.	1G	.
.	.	.	2e/
=80	=80	=80	=80
2r	0r	2F/	1f
2.F\	.	2.A/	.
.	.	.	1r
4G\	.	4B-\	.
4A\	.	2c\	.
8G\L	.	.	.
8A\J	.	.	.
=81	=81	=81	=81
2B-\	0r	2d\	0r
2F\	.	1f	.
1G	.	.	.
.	.	2e\	.
=82	=82	=82	=82
1F	0r	2.f\	2r
.	.	.	2.a/
.	.	4e\	.
2r	.	2d\	.
.	.	.	4g/
[2C/	.	2c\	[2e/
=83	=83	=83	=83
4C/]	0r	2r	4e/]
4D\	.	.	4f/
4E\	.	2C/	2g/
8D\L	.	.	.
8E\J	.	.	.
2F\	.	2D/	2f/
2C/	.	2E/	[2g/
=84	=84	=84	=84
1D	0r	1F	4g/]
.	.	.	4f/
.	.	.	1f
1C	.	1G	.
.	.	.	2e/
=85	=85	=85	=85
0FFl	0r	0Fl	0fl
!!LO:LB:i:g=z
=86||	=86||	=86||	=86||
*>C	*>C	*>C	*>C
*clefF4	*clefGv2	*clefGv2	*clefG2
*k[b-]	*k[b-]	*k[b-]	*k[b-]
*M2/1	*M2/1	*M2/1	*M2/1
*met(C|)	*met(C|)	*met(C|)	*met(C|)
!!section: Qui tollis
!!!OMD: Qui tollis
0r	0r	0c	0g
=87	=87	=87	=87
0r	0r	1B-	1g
.	.	1c	1g
=88	=88	=88	=88
0r	0r	0d	1f
.	.	.	[1b-
=89	=89	=89	=89
0r	0r	1d	2b-\]
.	.	.	2a/
.	.	1c	[1a
=90	=90	=90	=90
0r	0r	0B-	1a]
.	.	.	1g
=91	=91	=91	=91
1r	[0c	[0A	0a
[1F	.	.	.
=92	=92	=92	=92
0F_	0c]	0A]	1r
.	.	.	[1cc
=93	=93	=93	=93
1F]	0A	1r	2cc\]
.	.	.	2a/
[1D	.	[1f	[1a
=94	=94	=94	=94
1D]	0F	2f\]	2a/]
.	.	2d\	2f/
[1BB-	.	[1d	1f
=95	=95	=95	=95
1BB-]	[0G	1d]	2r
.	.	.	2d/
1C	.	1c	2.e/
.	.	.	4f/
=96	=96	=96	=96
1.E-	0G]	1B-	4g/
.	.	.	4a/
.	.	.	1g
.	.	1c	.
4D\	.	.	4f/
4C/	.	.	4e/
=97	=97	=97	=97
0BB-	1.B-	1F	1d
.	.	2r	[1f
.	4A/	[2d\	.
.	4G/	.	.
=98	=98	=98	=98
1r	0F	2d\]	2f/]
.	.	2c\	2e/
1BB-	.	2B-\	2d/
.	.	4A/	[2f/
.	.	4G/	.
=99	=99	=99	=99
1D	1r	1F	4f/]
.	.	.	4e/
.	.	.	2d/
1E	1G	1r	2c/
.	.	.	2B-/
=100	=100	=100	=100
[0F	1.A	0c	1A
.	.	.	[1a
.	2B-\	.	.
=101	=101	=101	=101
0F_	0c	1.A	1a]
.	.	.	[1cc
.	.	4G/	.
.	.	4F/	.
=102	=102	=102	=102
0F_	0f	[0c	2cc\]
.	.	.	2a/
.	.	.	1a
=103	=103	=103	=103
0F]	0f	1c]	2r
.	.	.	1a
.	.	1A	.
.	.	.	[2dd\
=104	=104	=104	=104
0r	0e	0A	2dd\]
.	.	.	4cc\
.	.	.	4b-\
.	.	.	4cc\
.	.	.	4b-\
.	.	.	4a/
.	.	.	4g/
=105	=105	=105	=105
0B-	[0d	1r	1f
.	.	[1G	[1b-
=106	=106	=106	=106
0B-	0d]	2G/]	2b-\]
.	.	2A/	2cc\
.	.	1B-	[1dd
=107	=107	=107	=107
0A	0r	2.c\	2dd\]
.	.	.	2cc\
.	.	4d\	.
.	.	2e\	[1cc
.	.	2f\	.
=108	=108	=108	=108
0G	0r	2g\	1cc]
.	.	4f\	.
.	.	4e\	.
.	.	1d	1bni
=109	=109	=109	=109
0r	1.c	1c	2cc\
.	.	.	1a
.	.	2r	.
.	2B-\	2d\	2g/
=110	=110	=110	=110
1.F	1A	2c\	1a
.	.	2.d\	.
.	1G	.	1r
.	.	4c\	.
2E\	.	[2c\	.
=111	=111	=111	=111
1D	1F	2c\]	2r
.	.	2Bni\	2d/
1C	1E	[1c	2e/
.	.	.	2g/
=112	=112	=112	=112
0r	1A	1c]	1f
.	2G/	2r	2e/
.	[2A/	[2c\	[2f/
=113	=113	=113	=113
0r	2A/]	2c\]	2f/]
.	4G/	4B-\	4e/
.	4F/	4A/	4d/
.	1G	2B-\	1e
.	.	2c\	.
=114	=114	=114	=114
1BB-	0F	2d\	0f
.	.	4c\	.
.	.	4B-\	.
2AA/	.	4c\	.
.	.	4B-\	.
[2D\	.	4A/	.
.	.	4G/	.
=115	=115	=115	=115
2D\]	0r	2F/	1r
4C/	.	1B-	.
4BB-/	.	.	.
1C	.	.	1c
.	.	2A/	.
=116	=116	=116	=116
0BB-	0r	1B-	2.d/
.	.	.	4e/
.	.	1d	2f/
.	.	.	[2g/
=117	=117	=117	=117
0r	1r	1c	2g/]
.	.	.	1e
.	[1c	2r	.
.	.	[2F/	[2a/
=118	=118	=118	=118
0r	1c]	2F/]	2a/]
.	.	2E/	1g
.	1A	1F	.
.	.	.	[2f/
=119	=119	=119	=119
0r	0G	1C	2f/]
.	.	.	4e/
.	.	.	4d/
.	.	1r	1e
=120	=120	=120	=120
1r	[0F	1c	1f
[1F	.	2d\	2r
.	.	[2c\	[2a/
=121	=121	=121	=121
1F]	0F]	4c\]	4a/]
.	.	4B-\	4g/
.	.	4A/	4f/
.	.	4G/	4e/
1D	.	2F/	2f/
.	.	[2B-\	2d/
=122	=122	=122	=122
0C	0r	2B-\]	2e/
.	.	4A/	1g
.	.	4G/	.
.	.	1A	.
.	.	.	4f/
.	.	.	4e/
=123	=123	=123	=123
0BB-	0B-	2B-\	1d
.	.	4A/	.
.	.	4G/	.
.	.	2F/	2r
.	.	2G/	[2g/
=124	=124	=124	=124
0r	0A	1D	2g/]
.	.	.	4f/
.	.	.	4e/
.	.	2r	1f
.	.	2A/	.
=125	=125	=125	=125
0E-	1G	1B-	1.g
.	[1c	1G	.
.	.	.	4f/
.	.	.	4e/
=126	=126	=126	=126
0D	1c]	0d	2f/
.	.	.	2d/
.	1Bni	.	1f
=127	=127	=127	=127
1C	0c	1.G	1.e
2r	.	.	.
[2F\	.	2A/	2f/
=128	=128	=128	=128
2F\]	1G	1B-	1g
2E\	.	.	.
1F	1A	2A/	1c
.	.	2c\	.
=129	=129	=129	=129
0r	1G	1B-	1d
.	[1c	[1A	[1e
=130	=130	=130	=130
1C	1c]	2A/]	2e/]
.	.	1G	4d/
.	.	.	4c/
1D	1B-	.	1f
.	.	2F/	.
=131	=131	=131	=131
2C/	[0c	1A	2e/
1F	.	.	2c/
.	.	1G	1g
2E\	.	.	.
=132	=132	=132	=132
0F	0c]	2F/	2a/
.	.	2.A/	2.cc\
.	.	4B-\	4b-\
.	.	2c\	2a/
=133	=133	=133	=133
0BB-	0r	2B-\	2g/
.	.	1d	1b-
.	.	4c\	4a/
.	.	4B-\	4g/
=134	=134	=134	=134
1D	1r	2A/	2f/
.	.	1B-	2d/
1C	1c	.	1e
.	.	2A/	.
=135	=135	=135	=135
0BB-	0F	2.B-\	1d
.	.	4A/	.
.	.	2F/	2r
.	.	[2f\	2d/
=136	=136	=136	=136
0r	1A	4f\]	1f
.	.	4e\	.
.	.	2c\	.
.	1G	2d\	1g
.	.	2e\	.
=137	=137	=137	=137
1r	0F	1f	1.a
1F	.	1c	.
.	.	.	4g/
.	.	.	4f/
=138	=138	=138	=138
1D	1r	0r	2b-\
.	.	.	1a
1E	1c	.	.
.	.	.	2g/
=139	=139	=139	=139
1F	1A	1c	1a
1r	1B-	2d\	2f/
.	.	4c\	[2g/
.	.	4B-\	.
=140	=140	=140	=140
1r	0c	2A/	4g/]
.	.	.	4f/
.	.	2F/	1f
1C	.	1G	.
.	.	.	2e/
=141	=141	=141	=141
1D	1r	1F	1f
1E	1G	1C	2r
.	.	.	2g/
=142	=142	=142	=142
1F	1A	2r	2f/
.	.	2c\	1a
1r	1B-	2d\	.
.	.	4c\	[2g/
.	.	4B-\	.
=143	=143	=143	=143
1r	1c	1A	4g/]
.	.	.	4f/
.	.	.	1f
1C	1r	1G	.
.	.	.	2e/
=144	=144	=144	=144
1D	0r	1F	1f
1E	.	2r	1g
.	.	[2c\	.
=145	=145	=145	=145
1.F	0r	4c\]	1a
.	.	4B-\	.
.	.	4A/	.
.	.	4G/	.
.	.	2A/	2f/
2E\	.	2G/	[2g/
=146	=146	=146	=146
1C	1r	1c	4g/]
.	.	.	4f/
.	.	.	4e/
.	.	.	4d/
1E	1G	1r	1c
=147	=147	=147	=147
0D	1A	0F	1r
.	1B-	.	1d
=148	=148	=148	=148
0C	1.c	1G	0e
.	.	2.G/	.
.	2B-\	.	.
.	.	4A/	.
=149	=149	=149	=149
0r	1G	1B-	1d
.	1B-	1G	[1g
=150	=150	=150	=150
0r	0A	0D	1g]
.	.	.	1f#i
=151	=151	=151	=151
0r	1G	0r	1.g
.	1B-	.	.
.	.	.	2d/
=152	=152	=152	=152
0r	1A	1D	1f
.	[1c	2C/	2e/
.	.	[2F/	[2a/
=153	=153	=153	=153
0r	1c]	2F/]	2a/]
.	.	2E/	2g/
.	1A	1F	2a/
.	.	.	4g/
.	.	.	4f/
=154	=154	=154	=154
1r	0G	1C	1e
1E	.	2r	2r
.	.	2c\	2e/
=155	=155	=155	=155
1D	0r	2d\	2f/
.	.	4c\	4e/
.	.	4B-\	4d/
[1F	.	2A/	2c/
.	.	[2d\	[2f/
=156	=156	=156	=156
1F]	1r	4d\]	4f/]
.	.	4c\	4g/
.	.	1c	1a
1D	1F	.	.
.	.	2Bni\	4g/
.	.	.	4f/
=157	=157	=157	=157
1C	1E	0c	2a/
.	.	.	2g/
1r	1F	.	2a/
.	.	.	[2f/
=158	=158	=158	=158
0r	0G	0C	2f/]
.	.	.	4e/
.	.	.	4d/
.	.	.	1e
=159	=159	=159	=159
1r	[0F	1c	[0f
1BB-	.	1d	.
=160	=160	=160	=160
1AA	0F]	1c	0f]
1BB-	.	[1B-	.
=161	=161	=161	=161
0C	0r	1B-]	0r
.	.	1A	.
=162	=162	=162	=162
0BB-	0r	1B-	1r
.	.	2r	1f
.	.	[2B-\	.
=163	=163	=163	=163
0r	0r	2B-\]	2d/
.	.	2G/	2e/
.	.	2A/	1f
.	.	[2B-\	.
=164	=164	=164	=164
0r	0r	2B-\]	2d/
.	.	2G/	1g
.	.	1c	.
.	.	.	2e/
=165	=165	=165	=165
0r	0r	2A/	2f/
.	.	2B-\	1g
.	.	1c	.
.	.	.	[2e/
=166	=166	=166	=166
0r	0r	1A	2e/]
.	.	.	1a
.	.	1d	.
.	.	.	2f/
=167	=167	=167	=167
0r	0r	2B-\	2g/
.	.	2c\	2.a/
.	.	1d	.
.	.	.	4g/
.	.	.	2f/
=168	=168	=168	=168
0r	0r	2c\	2e/
.	.	2A/	1f
.	.	1B-	.
.	.	.	4e/
.	.	.	4d/
=169	=169	=169	=169
[0F	0r	[0A	1c
.	.	.	[1cc
=170	=170	=170	=170
0F]	0r	0A]	2cc\]
.	.	.	2b-\
.	.	.	[1a
=171	=171	=171	=171
0B-	0r	0r	1a]
.	.	.	1g
=172	=172	=172	=172
1A	[0c	0F	0a
[1F	.	.	.
=173	=173	=173	=173
1F]	0c]	0C	0g
1E	.	.	.
=174	=174	=174	=174
0F	0f	[0c	1.a
.	.	.	4g/
.	.	.	4f/
=175	=175	=175	=175
0r	1e	0c]	2a/
.	.	.	2g/
.	[1c	.	2e/
.	.	.	[2g/
=176	=176	=176	=176
0r	1c]	1G	2g/]
.	.	.	4f/
.	.	.	4e/
.	1B-	2r	1d
.	.	2G/	.
=177	=177	=177	=177
1r	0c	2A/	2c/
.	.	2F/	1f
1C	.	1G	.
.	.	.	2e/
=178	=178	=178	=178
1D	0r	2F/	2f/
.	.	2.f\	2.a/
[1F	.	.	.
.	.	4e\	4g/
.	.	[2c\	4f/
.	.	.	4e/
=179	=179	=179	=179
1F]	0r	2c\]	2f/
.	.	4B-\	4e/
.	.	4A/	4d/
1E	.	1G	1c#i
=180	=180	=180	=180
1D	0r	2A/	0d
.	.	1F	.
1BB-	.	.	.
.	.	2B-\	.
=181	=181	=181	=181
1C	0r	2G/	0r
.	.	2c\	.
1D	.	2A/	.
.	.	[2d\	.
=182	=182	=182	=182
0E-	1r	2d\]	0r
.	.	4c\	.
.	.	4B-\	.
.	1G	1c	.
=183	=183	=183	=183
1D	1A	2d\	1.f
.	.	4c\	.
.	.	4B-\	.
1r	[1c	[1A	.
.	.	.	2e/
=184	=184	=184	=184
0r	1c]	2A/]	2f/
.	.	2F/	1a
.	1B-	1G	.
.	.	.	2g/
=185	=185	=185	=185
0r	1A	2D/	2f/
.	.	2.F/	2.a/
.	1F	.	.
.	.	4G/	4g/
.	.	2A/	4f/
.	.	.	4e/
=186	=186	=186	=186
0r	1G	1B-	2d/
.	.	.	1b-
.	1A	1c	.
.	.	.	[2a/
=187	=187	=187	=187
1G	0B-	1d	2a/]
.	.	.	4g/
.	.	.	4f/
2.G\	.	2d\	1g
.	.	[2e-\	.
4F\	.	.	.
=188	=188	=188	=188
2F\	1A	4e-\]	1a
.	.	4d\	.
2D\	.	1d	.
1E	1r	.	1r
.	.	2c\	.
=189	=189	=189	=189
1D	1d	1d	2f/
.	.	.	4g/
.	.	.	4a/
1r	1d	2r	2b-\
.	.	2D/	[2a/
=190	=190	=190	=190
1r	2c\	1F	4a/]
.	.	.	4g/
.	2A/	.	4f/
.	.	.	4e/
2r	1B-	1G	2d/
2BB-/	.	.	[2g/
=191	=191	=191	=191
2C/	1A	1A	2g/]
2D\	.	.	2f/
2.E-\	1r	2G/	2.g/
.	.	[2B-\	.
4D\	.	.	4f/
=192	=192	=192	=192
2.BB-/	0r	4B-\]	2.d/
.	.	4A/	.
.	.	2.F/	.
4C/	.	.	4e/
4D\	.	.	2f/
4E\	.	4G/	.
[2F\	.	4A/	[2c/
.	.	4B-\	.
=193	=193	=193	=193
4F\]	2r	2c\	2c/]
4E\	.	.	.
2D\	2F/	2B-\	2d/
1C	2G/	1c	1e
.	2A/	.	.
=194	=194	=194	=194
1BB-	2.B-\	1F	2d/
.	.	.	2.f/
.	4A/	.	.
1r	2.F/	1r	.
.	.	.	4e/
.	.	.	[2c/
.	4G/	.	.
=195	=195	=195	=195
0r	4A/	0r	4c/]
.	4B-\	.	4d/
.	1c	.	4e/
.	.	.	4f/
.	.	.	2g/
.	2A/	.	[2f/
=196	=196	=196	=196
1r	1G	2r	2f/]
.	.	2G/	2e/
2r	1F	2.A/	2f/
[2F\	.	.	[2a/
.	.	4B-\	.
=197	=197	=197	=197
2F\]	1r	4c\	2a/]
.	.	4d\	.
2E\	.	2e\	2g/
1F	2r	2c\	1a
.	[2c\	[2f\	.
=198	=198	=198	=198
1G	2c\]	2f\]	1b-
.	2B-\	2e\	.
1F	1c	1f	2a/
.	.	.	[2a/
=199	=199	=199	=199
1B-	1d	1r	2a/]
.	.	.	2g/
2A\	1c	2r	1a
2F\	.	2f\	.
=200	=200	=200	=200
2G\	0r	2e\	0r
2B-\	.	2d\	.
2A\	.	2c\	.
[2G\	.	[2B-\	.
=201	=201	=201	=201
4G\]	0r	4B-\]	2r
4F\	.	4A/	.
1F	.	2F/	2A/
.	.	1G	1B-
2E\	.	.	.
=202	=202	=202	=202
2F\	1r	1F	2A/
2.BB-/	.	.	2.d/
.	1f	1D	.
4C/	.	.	4c/
2D\	.	.	[2B-/
=203	=203	=203	=203
1C	2e\	1E	2B-/]
.	2c\	.	2A/
1BB-	2d\	2.F/	1B-
.	2f\	.	.
.	.	4G/	.
=204	=204	=204	=204
0r	2e\	2A/	2r
.	2.d\	2G/	1B-
.	.	1A	.
.	4c\	.	.
.	[2c\	.	2c/
=205	=205	=205	=205
0r	2c\]	1G	1d
.	2Bni\	.	.
.	2c\	2r	2c/
.	[2F/	[2A/	2d/
=206	=206	=206	=206
0r	4F/]	2A/]	2c/
.	4G/	.	.
.	2A/	1c	1f
.	1G	.	.
.	.	2B-\	2e/
=207	=207	=207	=207
2r	1F	1c	2f/
2F\	.	.	1a
2D\	1r	1B-	.
2E\	.	.	2g/
=208	=208	=208	=208
1F	2r	2A/	1.a
.	2c\	2.F/	.
1r	2A/	.	.
.	.	4E/	.
.	2B-\	2D/	4g/
.	.	.	4f/
=209	=209	=209	=209
2r	1c	2C/	2e/
2C/	.	2c\	2c/
2D\	2r	2A/	2f/
2E\	2G/	[2c\	2e/
=210	=210	=210	=210
1F	2.A/	4c\]	2c/
.	.	4B-\	.
.	.	4A/	2.cc\
.	4B-\	4G/	.
2r	1c	2F/	.
.	.	.	4b-\
2C/	.	2c\	4a/
.	.	.	4g/
=211	=211	=211	=211
2D\	2r	2A/	2f/
2E\	2G/	2.c\	2e/
1F	2.A/	.	2c/
.	.	4B-\	.
.	.	4A/	[2cc\
.	4B-\	4G/	.
=212	=212	=212	=212
2r	1c	1A	4cc\]
.	.	.	4b-\
2C/	.	.	1a
2D\	1r	1B-	.
2E\	.	.	2g/
=213	=213	=213	=213
2.F\	1r	2r	2a/
.	.	2.A/	4g/
4E\	.	.	4f/
2C/	2r	.	2e/
.	.	4G/	.
2E\	2G/	2G/	2c/
=214	=214	=214	=214
1D	2A/	2A/	1f
.	2B-\	2F/	.
1C	2.c\	2.G/	1e
.	4B-\	4A/	.
=215	=215	=215	=215
0r	2G/	4B-\	2r
.	.	4c\	.
.	2B-\	2d\	1g
.	1A	1c	.
.	.	.	2f/
=216	=216	=216	=216
2r	1G	2r	2g/
2E\	.	2c\	2e/
2D\	1r	2d\	2f/
[2F\	.	4c\	4e/
.	.	4B-\	4d/
=217	=217	=217	=217
4F\]	0r	2A/	2c/
4E\	.	.	.
2D\	.	1B-	2d/
1C	.	.	1e
.	.	2A/	.
=218	=218	=218	=218
1BB-	2r	2B-\	4d/
.	.	.	4e/
.	2B-\	4A/	4f/
.	.	4G/	4g/
1r	2A/	1F	1a
.	[2c\	.	.
=219	=219	=219	=219
0r	4c\]	2r	2g/
.	4B-\	.	.
.	2A/	2F/	1f
.	1G	1B-	.
.	.	.	2e/
=220	=220	=220	=220
2r	1F	2A/	1f
2BB-/	.	2d\	.
2AA/	1r	2c\	2r
2BB-/	.	2B-\	2f/
=221	=221	=221	=221
1C	1r	2.G/	2e/
.	.	.	2.g/
.	.	4A/	.
1BB-	2r	1B-	.
.	.	.	4f/
.	2F/	.	2d/
=222	=222	=222	=222
2r	2E/	1r	2c/
2FF/	2F/	.	1f
1C	1G	1c	.
.	.	.	2e/
=223	=223	=223	=223
*M3/1	*M3/1	*M3/1	*M3/1
*met(O/3)	*met(O/3)	*met(O/3)	*met(O/3)
!!LO:TX:Z=8:X=-40:t=O/3
1FF	1F	1c	0f
1F	1A	1A	.
1D	1B-	1F	1f
=224	=224	=224	=224
1C	1.c	1G	1e
1F	.	1A	1f
.	2d\	.	.
1E	1e	1G	1g
=225	=225	=225	=225
1D	1.f	1.F	0a
1.F	.	.	.
.	2e\	2G/	.
.	1c	2A/	1a
2E\	.	2B-\	.
=226	=226	=226	=226
1C	1e	1c	0g
1GG	1.d	1.B-	.
1C	.	.	1g
.	2c\	2A/	.
=227	=227	=227	=227
1E	0c	0G	1e
0D	.	.	0f
.	1Bni	1F	.
=228	=228	=228	=228
1C	1c	1G	1e
1F	1A	1A	1c
1D	1F	1B-	1d
=229	=229	=229	=229
0C	0c	1c	1e
.	.	1e-i	1.g
1BB-	[1F	1d	.
.	.	.	2f/
=230	=230	=230	=230
1D	1F]	1B-	0f
0C	0G	0c	.
.	.	.	1e
=231	=231	=231	=231
0.FFl	0.Fl	0.cl	0.fl
==	==	==	==
*-	*-	*-	*-
!!!RDF**kern: l=long note in original notation
!!!RDF**kern: i=editorial accidental
!!!RDF**kern: V=start of tuplet marker
!!!RDF**kern: Z=end of tuplet marker
!!!ENC:	Jesse Rodin 8/27/2013
!!!END:	2013/08/27/
!!!EED:	Jesse Rodin
!!!EEV:	2013/08/29/
!!!ONB:	Translated from MusicXML and edited on 2013/08/29/ by Craig Sapp
!!muse2ps: T^@{OPR}^u^@{ONM}{. }@{OTL}^C^@{COM}^i2I150v85,85,85,150Q16
